Icons/elasticsearch.svg

<svg width="256" height="256" viewBox="0 0 256 256" fill="none" xmlns="http://www.w3.org/2000/svg"><path d="M173.5 98h-52.25c.25 1.25.75 2.5 1 3.5 1.75 6 2.75 12.25 3.25 18.75.25 2.5.25 5.25.25 7.75s0 5.25-.25 7.75c-.5 6.5-1.5 12.75-3.25 18.75-.25 1.25-.75 2.5-1 3.5h52.25c16.5 0 29.75-13.5 29.75-30S190 98 173.5 98" fill="#00a9e5"/><path d="M125.5 135.75c.25-2.5.25-5.25.25-7.75s0-5.25-.25-7.75c-.5-6.5-1.5-12.75-3.25-18.75-.25-1.25-.75-2.5-1-3.5H40.5Q36 112.25 36 128t4.5 30h80.75c.25-1.25.75-2.5 1-3.5 1.75-6 2.75-12.25 3.25-18.75" fill="#353535"/><path d="M182.5 168h-65q-3 6.75-6.75 12.75c-3.75 6.25-8.25 11.75-13.25 17-1.75 1.75-3.5 3.25-5.25 5-3.5 3.25-7.5 6-11.5 8.75 15.75 10.5 34.75 16.5 55 16.5 34.75 0 65.25-17.75 83.25-44.5-9.25-9.5-22.25-15.5-36.5-15.5" fill="#00bfb3"/><path d="M110.75 180.75q3.75-6 6.75-12.75H44.25C52 185.75 64.75 201 81 211.5c4-2.75 7.75-5.5 11.5-8.75 1.75-1.5 3.5-3.25 5.25-5 4.75-5 9.25-10.75 13-17" fill="#019b8f"/><path d="M97.5 58.25c-1.75-1.75-3.5-3.25-5.25-5-3.5-3.25-7.5-6-11.5-8.75C64.75 55 52 70.25 44 88h73.5c-2-4.5-4.5-9-7-13-3.5-6.25-8-11.75-13-16.75" fill="#f9b110"/><path d="M135.75 28c-20.25 0-39.25 6-55 16.5 4 2.75 7.75 5.5 11.5 8.75 1.75 1.5 3.5 3.25 5.25 5 5 5.25 9.5 10.75 13.25 17q3.75 6 6.75 12.75h65c14.25 0 27.25-6 36.5-15.5C201 45.75 170.5 28 135.75 28" fill="#fed10a"/></svg>

<svg width="256" height="256" viewBox="0 0 256 256" fill="none" xmlns="http://www.w3.org/2000/svg">
<rect width="256" height="256" rx="60" fill="#242938"/>
<path d="M173.5 98H121.25C121.5 99.25 122 100.5 122.25 101.5C124 107.5 125 113.75 125.5 120.25C125.75 122.75 125.75 125.5 125.75 128C125.75 130.5 125.75 133.25 125.5 135.75C125 142.25 124 148.5 122.25 154.5C122 155.75 121.5 157 121.25 158H173.5C190 158 203.25 144.5 203.25 128C203.25 111.5 190 98 173.5 98Z" fill="#00A9E5"/>
<path d="M125.5 135.75C125.75 133.25 125.75 130.5 125.75 128C125.75 125.5 125.75 122.75 125.5 120.25C125 113.75 124 107.5 122.25 101.5C122 100.25 121.5 99 121.25 98H40.5C37.5 107.5 36 117.5 36 128C36 138.5 37.5 148.5 40.5 158H121.25C121.5 156.75 122 155.5 122.25 154.5C124 148.5 125 142.25 125.5 135.75Z" fill="#353535"/>
<path d="M182.5 168H117.5C115.5 172.5 113.25 176.75 110.75 180.75C107 187 102.5 192.5 97.5001 197.75C95.7501 199.5 94.0001 201 92.2501 202.75C88.7501 206 84.7501 208.75 80.7501 211.5C96.5001 222 115.5 228 135.75 228C170.5 228 201 210.25 219 183.5C209.75 174 196.75 168 182.5 168Z" fill="#00BFB3"/>
<path d="M110.75 180.75C113.25 176.75 115.5 172.5 117.5 168H44.25C52 185.75 64.75 201 81 211.5C85 208.75 88.75 206 92.5 202.75C94.25 201.25 96 199.5 97.75 197.75C102.5 192.75 107 187 110.75 180.75Z" fill="#019B8F"/>
<path d="M97.5 58.25C95.75 56.5 94 55 92.25 53.25C88.75 50 84.75 47.25 80.75 44.5C64.75 55 52 70.25 44 88H117.5C115.5 83.5 113 79 110.5 75C107 68.75 102.5 63.25 97.5 58.25Z" fill="#F9B110"/>
<path d="M135.75 28C115.5 28 96.5001 34 80.7501 44.5C84.7501 47.25 88.5001 50 92.2501 53.25C94.0001 54.75 95.7501 56.5 97.5001 58.25C102.5 63.5 107 69 110.75 75.25C113.25 79.25 115.5 83.5 117.5 88H182.5C196.75 88 209.75 82 219 72.5C201 45.75 170.5 28 135.75 28Z" fill="#FED10A"/>
</svg>
